img/icons/user/infoPanel/nameIco.svg

<svg width="8" height="15" viewBox="0 0 8 15" fill="none" xmlns="http://www.w3.org/2000/svg">
<path d="M2.41373 14.952C2.28573 14.328 2.16573 13.672 2.05373 12.984C1.95773 12.296 1.86973 11.624 1.78973 10.968C1.70973 10.296 1.64573 9.672 1.59773 9.096C1.54973 8.52 1.52573 8.032 1.52573 7.632C1.52573 7.104 1.59773 6.56 1.74173 6C1.88573 5.44 2.15773 4.912 2.55773 4.416C2.97373 3.92 3.58173 3.504 4.38173 3.168L7.30973 3.216C6.47773 3.472 5.86173 3.816 5.46173 4.248C5.07773 4.68 4.82973 5.16 4.71773 5.688C4.62173 6.2 4.58973 6.72 4.62173 7.248C4.63773 7.648 4.68573 8.184 4.76573 8.856C4.86173 9.528 4.96573 10.24 5.07773 10.992C5.20573 11.744 5.31773 12.472 5.41373 13.176C5.52573 13.88 5.62173 14.472 5.70173 14.952H2.41373ZM0.637734 3.216V0.599999H7.64573L7.30973 3.216H0.637734Z" fill="#F56311"/>
</svg>

<svg width="8" height="15" fill="none" xmlns="http://www.w3.org/2000/svg"><path d="M2.414 14.952a48.933 48.933 0 0 1-.36-1.968c-.096-.688-.184-1.36-.264-2.016a53.483 53.483 0 0 1-.192-1.872 18.08 18.08 0 0 1-.072-1.464c0-.528.072-1.072.216-1.632.144-.56.416-1.088.816-1.584.416-.496 1.024-.912 1.824-1.248l2.928.048c-.832.256-1.448.6-1.848 1.032a3.118 3.118 0 0 0-.744 1.44 6.349 6.349 0 0 0-.096 1.56c.016.4.064.936.144 1.608.096.672.2 1.384.312 2.136.128.752.24 1.48.336 2.184.112.704.208 1.296.288 1.776H2.414ZM.638 3.216V.6h7.008L7.31 3.216H.638Z" fill="#F56311"/></svg>
